X:5 
T: Jó ló volt a fakó, jó ló is ellette
M:2/4
L:1/4
K:C
A B | c/B/ A/E/ | A B | c/B/ A | G z |
F A | A/^G/ =F/D/ | E A | A/^G =F | E z | 

